X: 7
T:Farewell Trion
R:Reel
M:4/4
L:1/8
N: Transcribed by Bruce Thomson from the Red
Mountain White Trash
K:C
eg2ag2e2|d2c2G4|Accc Accc|Acd2 e4|eg2ag2e2|d2c2G4|
ABcd cBAB|cAGE DC3::G,A,CD EGAB|cBA2 c4|c2 cd cBAB|
[1cAGE DC3:|[2cAGE DCEF||G2EFG2EF|GAGE DCEF|
GECE G2AB|cAGE DCEF|G2EFG2EF|GAGEDCA,C|G,A,CD EGAB|cAGE DC3||

